!!! OTL: Berkowitz211
!!! Chapter: 1
!!! Section: II
!!! Page: 49
!!! Mode: 
!!! Encoder: DJB
**kern
*staff1
*I"Piano
=1-
*clefC4
*k[b-e-a-]
*E-:
*met(c|)
*M2/2
4r
4r
4r
8G/L
8A-/J
=2
4B-\
4E-/
4E-/
8D/L
8E-/J
=3
8F/L
8E-/
8D/
8C/J
4BB-/
8C/L
8D/J
=4
8E-/L
8D/
8E-/
8F/J
4G/
4A-\
=5
2G/
4F/
8G/L
8A-/J
=6
4B-\
4E-/
4E-/
8A-\L
8B-\J
=7
4c\
8B-\L
8c\J
4d\
8c\L
8d\J
=8
!!linebreak:original
4e-\
4E-/
8D/L
8E-/
8F/
8G/J
=9
2E-/
2r
==
*-
